X: 5
T:Ower The Water
M:6/8
L:1/8
Q:110
R:Jig
K:D
"D"D2A AFA| "G"B/2c/2d F "A"E2D|"D"DFA AFA|"G"BAB "D"def|DFA AFA|
"G"Bcd "D"AFD|dfd "A"ecA|1 "G"B3"D"d3:|2 "G"B3"D"d2 A|:
"D"dfd "A"ecA|"D"d2F "A"E2D|"D"dfd "A"ecA|"G"B3"D"d2 A|
"D"dfd "A"ecA|"D"d2F "A"E2D|
"D"D2A AFA|1"G"B3"D"d2 A:|2"G"B3"D"d3|
